packages/ffe-icons/icons/filled/md/vertical_split.svg

<svg xmlns="http://www.w3.org/2000/svg" height="24" viewBox="0 -960 960 960" width="24"><path d="M170.001-373.078q-12.75 0-21.375-8.629-8.625-8.628-8.625-21.384 0-12.755 8.625-21.37t21.375-8.615h240q12.749 0 21.374 8.628Q440-415.819 440-403.064q0 12.756-8.625 21.371-8.625 8.615-21.374 8.615h-240Zm0 153.077q-12.75 0-21.375-8.629t-8.625-21.384q0-12.756 8.625-21.371Q157.251-280 170.001-280h240q12.749 0 21.374 8.629Q440-262.743 440-249.987q0 12.755-8.625 21.37-8.625 8.616-21.374 8.616h-240Zm0-306.923q-12.75 0-21.375-8.628-8.625-8.629-8.625-21.384 0-12.756 8.625-21.371 8.625-8.615 21.375-8.615h240q12.749 0 21.374 8.629Q440-569.665 440-556.909q0 12.755-8.625 21.37t-21.374 8.615h-240Zm0-153.076q-12.75 0-21.375-8.629-8.625-8.628-8.625-21.384 0-12.755 8.625-21.37 8.625-8.616 21.375-8.616h240q12.749 0 21.374 8.629Q440-722.741 440-709.986q0 12.756-8.625 21.371Q422.75-680 410.001-680h-240Zm442.308 459.999q-29.827 0-51.067-21.241-21.241-21.24-21.241-51.067v-375.382q0-29.827 21.241-51.067 21.24-21.241 51.067-21.241h135.382q29.827 0 51.067 21.241 21.241 21.24 21.241 51.067v375.382q0 29.827-21.241 51.067-21.24 21.241-51.067 21.241H612.309Z"/></svg>

<svg xmlns="http://www.w3.org/2000/svg" height="24" viewBox="0 -960 960 960" width="24"><path d="M170-373.08q-12.75 0-21.37-8.63-8.63-8.63-8.63-21.38 0-12.76 8.63-21.37 8.62-8.62 21.37-8.62h240q12.75 0 21.38 8.63 8.62 8.63 8.62 21.39 0 12.75-8.62 21.37-8.63 8.61-21.38 8.61H170ZM170-220q-12.75 0-21.37-8.63-8.63-8.63-8.63-21.38 0-12.76 8.63-21.37Q157.25-280 170-280h240q12.75 0 21.38 8.63 8.62 8.63 8.62 21.38 0 12.76-8.62 21.37Q422.75-220 410-220H170Zm0-306.92q-12.75 0-21.37-8.63-8.63-8.63-8.63-21.39 0-12.75 8.63-21.37 8.62-8.61 21.37-8.61h240q12.75 0 21.38 8.63 8.62 8.63 8.62 21.38 0 12.76-8.62 21.37-8.63 8.62-21.38 8.62H170ZM170-680q-12.75 0-21.37-8.63-8.63-8.63-8.63-21.38 0-12.76 8.63-21.37Q157.25-740 170-740h240q12.75 0 21.38 8.63 8.62 8.63 8.62 21.38 0 12.76-8.62 21.37Q422.75-680 410-680H170Zm442.31 460q-29.83 0-51.07-21.24Q540-262.48 540-292.31v-375.38q0-29.83 21.24-51.07Q582.48-740 612.31-740h135.38q29.83 0 51.07 21.24Q820-697.52 820-667.69v375.38q0 29.83-21.24 51.07Q777.52-220 747.69-220H612.31Z"/></svg>
